X:1
T:Phantom of the Opera
T:Phantom of the Opera
T:For String Quartet
T:Andrew Lloyd Webber arr. Lady Tookie
C:Andrew Lloyd Webber
%%score 1 2 3 4
L:1/8
Q:1/4=160
M:4/4
K:F
V:1 treble nm="Violin" snm="Vln."
V:2 treble nm="Violin" snm="Vln."
V:3 alto nm="Viola" snm="Vla."
V:4 bass nm="Violoncello" snm="Vc."
V:1
!f! d8- | d4 !>!d^c=c=B | _B8- | B4 z4 | d8- | d4 !>!d^c=c=B | _B8 | !>!_AB z2 B=Bc^c | d8- | %9
 d2 A,2 D2 A,2 | (C3 B,) B,4- | B,2 G,2 C3 G, | A,8- | A,2 A,2 D2 A,2 | C3 B, B,4- | %15
 B,2 G,2 C3 G, | A,8- | A,2 A,2 D2 F2 | (A3 G) G4- | G2 G2 c3 G | A8- | A4 z2 A2 | d8- | %23
 dcBA GFED | ^C8- | C2 B,2 B,3 A, |!>(! A,8-!>)! | A,4!f! !>!A_AG_G | F8 | !>!_EF z2 !>!DCB,A, || %30
[K:Bb] D8- | D2 z2 z4 |!mp! !>!CC z C !>!CC z C | !>!FF z F !>!FF z F | !>!G,G, z G, !>!G,G, z G, | %35
 !>!G,G, z G, !>!G,G, z G, | !>!CC z C !>!CC z C | !>!FF z F !>!FF z F | %38
 !>!G,G, z G, !>!G,G, z G, | !>!G,G, z G, !>!G,G, z G, |!p! E8 | A8 |!<(! d8-!<)! | %43
!f! d4 z2!f! d2 | g8- | gfed cBAG | ^F8- | F2 E2 E3 D ||[K:Eb] F6 G2 | G3 F F3 F | F4 c4- | c6 z2 | %52
 F6 G2 | G3 F F3 F | F4 c4- | c6 z2 | a6 (ga/g/) | f3 g f3 e | f4 a4- | a8 |: b6 (=ab/a/) | %61
 g3 =a g3 f | g4 b4- | b6 z2 :|[K:C] c'6 (bc'/b/) | a3 b a3 g | a4 c'4- | c'6 z2 | c'8- | c'6 z2 | %70
 c'8- | c'6 z2 | c'8- | c'6 z2 | e'8- | !fermata!e'6 z2 |] %76
V:2
!f! A8- | A4 !>!A_AG_G | F8- | F4 z4 | A8- | A4 !>!A_AG_G | F8 | !>!_EF z2 F_G=G_A | =A8- | %9
 A2 z2 z4 | z8 | z8 |!sfz!!<(! A6- A!>!G!<)! | !>!A z z2 z4 |!mp! G,8 | B,8 | A,8- | A,2 z2 z4 | %18
 B,8 | C8 | A,8- | A,4 z2!mf! A,2 | D8- | DcBA GFED | G,8- | G,2 z2 z4 |!f! !>!d8- | %27
 d4 !>!d^c=c=B | _B8 | !>!_AB z2 !>!dcB=A ||[K:Bb] G8- | G2 z2 z4 | z8 | z8 | z8 | z2 D2 G2 D2 | %36
 (F3 E) E4- | E2 C2 F3 C | D8- | D2 z2 G,2 B,2 | (D3 C) C4- | C2 C2 F3 C | D8- | D4 z2 D2 | G8- | %45
 GFED CB,A,G, | C8- | C2 C2 C3 C ||[K:Eb] .F.C.F.G .A.B.A.E | .F.C.F.G .A.B.A.E | %50
 .F.C.F.A .B.c.B.E | .F.C.F.A .B.c.B.E | .F.C.F.G .A.B.A.E | .F.C.F.G .A.B.A.E | %54
 .F.C.F.A .B.c.B.E | .F.C.F.A .B.c.B.E | .F.C.F.G .A.B.A.E | .F.C.F.G .A.B.A.E | %58
 .F.C.F.A .A.c.A.E | .F.C.F.A .A.c.A.E |: .G.D.G.=A .B.c.B.F | .G.D.G.=A .B.c.B.F | %62
 .G.E.G.B .B.e.B.F | .G.E.G.B .B.e.B.F :|[K:C] .A.E.A.B .c.d.c.G | .A.E.A.B .c.d.c.G | %66
 .A.F.A.B .c.F.c.G | .A.F.A.B .c.F.c.G | .A.E.A.B .c.d.c.G | .A.E.A.B .c.d.c.G | %70
 .A.F.A.B .c.F.c.G | .A.F.A.B .c.F.c.G | .A.E.A.B .c.d.c.G | .A.E.A.B A_AG_G | z8 | z8 |] %76
V:3
!f! F8- | F4 !>!FE_ED | D8- | D4 z4 | F8- | F4 !>!FE_ED | D8 | !>!CD z2 D_E=EF | F8- | F2 z2 z4 | %10
 z8 | z8 |!sfz!!<(! A,6- A,!>!G,!<)! | !>!A, z z2 z4 |!mp! C,8 | E,8 | F,8- | F,2 z2 z4 | F,8 | %19
 G,8 | F,8- | F,4 z2!mf! F,2 | A,8- | A,CB,A, G,F,E,D, | ^C,8- | C,2 F,2 F,3 F, |!f! !>!F8- | %27
 F4 !>!FE_ED | D8 | !>!CD z2 !>!DCB,A, ||[K:Bb] G,8- | G,2 D2 G2 D2 | (F3 E) E4- | E2 C2 F3 C | %34
 D8- | D2 z2 z4 | z8 | z8 | z8 | z2 D,2 G,2 B,2 | (D3 C) C4- | C2 C2 F3 C | %42
 D4- D/(G/F/E/ D/C/B,/A,/ | G,2) z2 z2 D2 | G8- | GFED CB,A,G, | ^F,8- | F,2 E,2 E,3 D, || %48
[K:Eb] F,6 G,2 | G,3 F, F,3 F, | F,4 C4- | C6 z2 | F,6 G,2 | G,3 F, F,3 F, | F,4 C4- | C6 z2 | %56
 A6 (GA/G/) | F3 G F3 E | F4 A4- | A8 |: B6 (=AB/A/) | G3 =A G3 F | G4 B4- | B6 z2 :| %64
[K:C] c6 (Bc/B/) | A3 B A3 G | A4 c4- | c6 z2 | c6 (Bc/B/) | A3 B A3 G | A4 c4- | c6 z2 | c8- | %73
 c4 cB_BA | z8 | z8 |] %76
V:4
!f! !>!D,,D,,D,,!>!D,, !>!D,,D,,D,,!>!D,, | !>!D,,D,,D,,!>!D,, !>!D,^C,=C,=B,, | %2
 !>!B,,B,,B,,!>!B,, !>!B,,B,,B,,B,, | !>!_A,,B,,B,,!>!B,, !>!B,,B,,B,,!>!B,, | %4
 !>!D,,D,,D,,!>!D,, !>!D,,D,,D,,!>!D,, | !>!D,,D,,D,,!>!D,, !>!D,^C,=C,=B,, | %6
 !>!B,,B,,B,,!>!B,, !>!B,,B,,B,,B,, | !>!_A,,B,,B,,!>!B,, !>!B,,B,,B,,!>!B,, | %8
 !>!D,,D,,D,,!>!D,, !>!D,,D,,D,,!>!D,, | !>!D,,D,,D,,!>!D,, !>!D,,D,,D,,!>!D,, | %10
 !>!G,,G,,G,,!>!G,, !>!G,,G,,G,,!>!G,, | !>!C,,C,,C,,!>!C,, !>!C,,C,,C,,!>!C,, | %12
 !>!D,,D,,D,,!>!D,, !>!D,,D,,D,,!>!C,, | !>!D,,D,,D,,!>!D,, !>!D,,D,,D,,!>!D,, | %14
 !>!G,,G,,G,,!>!G,, !>!G,,G,,G,,!>!G,, | !>!C,,C,,C,,!>!C,, !>!C,,C,,C,,!>!C,, | %16
 !>!D,,D,,D,,!>!D,, !>!D,,D,,D,,!>!D,, | !>!D,,D,,D,,!>!D,, !>!D,,D,,D,,!>!D,, | %18
 !>!B,,B,,B,,!>!B,, !>!B,,B,,B,,!>!B,, | !>!C,C,C,!>!C, !>!C,C,C,!>!C, | %20
 !>!D,,D,,D,,!>!D,, !>!D,,D,,D,,!>!C,, | !>!D,,D,,D,,!>!D,, !>!D,,D,,D,,!>!D,, | %22
 !>!D,,D,,D,,!>!D,, !>!D,,D,,D,,!>!D,, | !>!D,,D,,D,,!>!D,, !>!D,,D,,D,,!>!D,, | %24
 !>!B,,B,,B,,!>!B,, !>!B,,B,,B,,!>!B,, | !>!B,,B,,B,,!>!B,, !>!B,,B,,B,,!>!B,, | %26
 !>!D,,D,,D,,!>!D,, !>!D,,D,,D,,!>!D,, | !>!D,,D,,D,,!>!D,, !>!D,^C,=C,=B,, | %28
 !>!B,,B,,B,,!>!B,, !>!B,,B,,B,,B,, | !>!_A,,B,,B,,!>!B,, !>!D,C,B,,=A,, || %30
[K:Bb] !>!G,,G,,G,,!>!G,, !>!G,,G,,G,,!>!G,, | !>!G,,G,,G,,!>!G,, !>!G,,G,,G,,!>!G,, | %32
 !>!C,,C,,C,,!>!C,, !>!C,,C,,C,,!>!C,, | !>!F,,F,,F,,!>!F,, !>!F,,F,,F,,!>!F,, | %34
 !>!G,,G,,G,,!>!G,, !>!G,,G,,D,D, | !>!G,,G,,G,,!>!G,, !>!G,,G,,G,,!>!G,, | %36
 !>!C,,C,,C,,!>!C,, !>!C,,C,,C,,!>!C,, | !>!F,,F,,F,,!>!F,, !>!F,,F,,F,,!>!F,, | %38
 !>!G,,G,,G,,!>!G,, !>!G,,G,,D,D, | !>!G,,G,,G,,!>!G,, !>!G,,G,,G,,!>!G,, | %40
 !>!E,,E,,E,,!>!E,, !>!E,,E,,E,,!>!E,, | !>!F,,F,,F,,!>!F,, !>!F,,F,,F,,!>!F,, | %42
 !>!G,,G,,G,,!>!G,, !>!G,,G,,G,,!>!G,, | !>!G,,G,,G,,!>!G,, !>!G,,G,,G,,!>!G,, | %44
 !>!G,,G,,G,,!>!G,, !>!G,,G,,G,,!>!G,, | !>!G,,G,,G,,!>!G,, !>!G,,G,,G,,!>!G,, | %46
 !>!C,C,C,!>!C, !>!C,C,C,!>!C, | !>!C,C,C,!>!C, !>!A,,_A,,G,,!>!_G,, || %48
[K:Eb] !>!F,,F,,F,,!>!F,, !>!F,,F,,F,,!>!F,, | !>!F,,F,,F,,!>!F,, !>!F,,E,,D,,_D,, | %50
 !>!C,,C,,C,,!>!C,, !>!C,,C,,C,,!>!C,, | !>!C,,C,,C,,!>!C,, !>!C,,D,,E,,=E,, | %52
 !>!F,,F,,F,,!>!F,, !>!F,,F,,F,,!>!F,, | !>!F,,F,,F,,!>!F,, !>!F,,E,,D,,_D,, | %54
 !>!C,,C,,C,,!>!C,, !>!C,,C,,C,,!>!C,, | !>!C,,C,,C,,!>!C,, !>!C,,D,,E,,=E,, | %56
 !>!F,,F,,F,,!>!C,, !>!F,,F,,F,,!>!F,, | !>!F,,F,,F,,!>!F,, !>!F,,E,,D,,_D,, | %58
 !>!C,,C,,C,,!>!C,, !>!C,,C,,C,,!>!C,, | !>!C,,C,,C,,!>!C,, !>!C,,D,,E,,F,, |: %60
 !>!G,,G,,G,,!>!F,, !>!G,,G,,G,,!>!G,, | !>!G,,G,,G,,!>!G,, !>!G,,^F,,=F,,!>!=E,, | %62
 !>!_E,,E,,E,,!>!E,, !>!E,,E,,E,,!>!E,, | !>!_E,,E,,E,,!>!E,, !>!E,,=E,,F,,^F,, :| %64
[K:C] !>!A,,A,,A,,!>!G,, !>!A,,A,,A,,!>!A,, | !>!A,,A,,A,,!>!A,, !>!A,,_A,,G,,_G,, | %66
 !>!F,,F,,F,,!>!E,, !>!F,,F,,F,,!>!F,, | !>!F,,F,,F,,!>!F,, !>!F,,_G,,=G,,_A,, | %68
 !>!A,,A,,A,,!>!G,, !>!A,,A,,A,,!>!A,, | !>!A,,A,,A,,!>!A,, !>!A,,_A,,G,,_G,, | %70
 !>!F,,F,,F,,!>!E,, !>!F,,F,,F,,!>!F,, | !>!F,,F,,F,,!>!F,, !>!F,,_G,,=G,,_A,, | %72
 !>!A,,A,,A,,!>!G,, !>!A,,A,,A,,!>!A,, | !>!A,,A,,A,,!>!A,, !>!A,,_A,,G,,_G,, | z8 | z8 |] %76

